images/flexibility-icon.svg

<svg xmlns="http://www.w3.org/2000/svg" xmlns:xlink="http://www.w3.org/1999/xlink" width="95" zoomAndPan="magnify" viewBox="0 0 71.25 84.749997" height="113" preserveAspectRatio="xMidYMid meet" version="1.0"><defs><clipPath id="a266d3fb00"><path d="M 0.0664062 0.316406 L 69.832031 0.316406 L 69.832031 83.441406 L 0.0664062 83.441406 Z M 0.0664062 0.316406 " clip-rule="nonzero"/></clipPath><clipPath id="c8b4016f58"><path d="M 0 0.316406 L 69.765625 0.316406 L 69.765625 83.441406 L 0 83.441406 Z M 0 0.316406 " clip-rule="nonzero"/></clipPath></defs><g clip-path="url(#a266d3fb00)"><path fill="#012430" d="M 29.378906 0.316406 C 26.773438 0.316406 24.652344 2.4375 24.652344 5.042969 L 24.652344 29.9375 L 15.347656 66.199219 L 15.371094 66.207031 C 15.261719 66.605469 15.203125 67.019531 15.203125 67.429688 C 15.203125 70.039062 17.320312 72.15625 19.929688 72.15625 C 22.203125 72.15625 24.152344 70.53125 24.566406 68.289062 L 30.324219 45.691406 L 43.558594 45.691406 L 36.226562 77.296875 L 36.234375 77.296875 C 36.078125 77.777344 35.996094 78.273438 35.996094 78.773438 C 35.996094 81.382812 38.117188 83.5 40.722656 83.5 C 43.011719 83.5 44.96875 81.855469 45.367188 79.601562 L 52.65625 48.199219 L 60.699219 79.890625 L 60.714844 79.890625 C 61.222656 82 63.121094 83.5 65.300781 83.5 C 67.90625 83.5 70.027344 81.382812 70.027344 78.773438 C 70.027344 78.367188 69.976562 77.96875 69.871094 77.585938 L 60.324219 41.125 C 59.058594 34.050781 52.886719 28.675781 45.449219 28.675781 L 34.105469 28.675781 L 34.105469 5.042969 C 34.105469 2.4375 31.988281 0.316406 29.378906 0.316406 Z M 9.53125 23.003906 C 4.308594 23.003906 0.078125 27.234375 0.078125 32.457031 C 0.078125 37.675781 4.308594 41.910156 9.53125 41.910156 C 14.75 41.910156 18.984375 37.675781 18.984375 32.457031 C 18.984375 27.234375 14.75 23.003906 9.53125 23.003906 Z M 9.53125 23.003906 " fill-opacity="1" fill-rule="nonzero"/></g><g clip-path="url(#c8b4016f58)"><path fill="#012430" d="M 29.316406 0.316406 C 26.707031 0.316406 24.589844 2.4375 24.589844 5.042969 L 24.589844 29.9375 L 15.285156 66.199219 L 15.304688 66.207031 C 15.195312 66.605469 15.136719 67.019531 15.136719 67.429688 C 15.136719 70.039062 17.257812 72.15625 19.863281 72.15625 C 22.136719 72.15625 24.085938 70.53125 24.5 68.289062 L 30.261719 45.691406 L 43.496094 45.691406 L 36.160156 77.296875 L 36.167969 77.296875 C 36.015625 77.777344 35.933594 78.273438 35.933594 78.773438 C 35.933594 81.382812 38.050781 83.5 40.660156 83.5 C 42.949219 83.5 44.90625 81.855469 45.304688 79.601562 L 52.59375 48.199219 L 60.636719 79.890625 L 60.648438 79.890625 C 61.160156 82 63.058594 83.5 65.234375 83.5 C 67.84375 83.5 69.960938 81.382812 69.960938 78.773438 C 69.960938 78.367188 69.910156 77.96875 69.808594 77.585938 L 60.257812 41.125 C 58.996094 34.050781 52.820312 28.675781 45.386719 28.675781 L 34.042969 28.675781 L 34.042969 5.042969 C 34.042969 2.4375 31.921875 0.316406 29.316406 0.316406 Z M 9.464844 23.003906 C 4.242188 23.003906 0.0117188 27.234375 0.0117188 32.457031 C 0.0117188 37.675781 4.242188 41.910156 9.464844 41.910156 C 14.6875 41.910156 18.917969 37.675781 18.917969 32.457031 C 18.917969 27.234375 14.6875 23.003906 9.464844 23.003906 Z M 9.464844 23.003906 " fill-opacity="1" fill-rule="nonzero"/></g></svg>

<svg xmlns="http://www.w3.org/2000/svg" width="95" height="113" viewBox="0 0 71.25 84.75"><defs><clipPath id="a"><path d="M.066.316h69.766v83.125H.066Zm0 0"/></clipPath><clipPath id="b"><path d="M0 .316h69.766v83.125H0Zm0 0"/></clipPath></defs><g clip-path="url(#a)"><path fill="#012430" d="M29.379.316a4.733 4.733 0 0 0-4.727 4.727v24.895l-9.304 36.261.023.008c-.11.398-.168.813-.168 1.223a4.73 4.73 0 0 0 4.727 4.726 4.72 4.72 0 0 0 4.636-3.867l5.758-22.598H43.56l-7.332 31.606h.007c-.156.48-.238.976-.238 1.476a4.73 4.73 0 0 0 4.727 4.727 4.72 4.72 0 0 0 4.644-3.898l7.29-31.403 8.042 31.692h.016A4.72 4.72 0 0 0 65.3 83.5a4.73 4.73 0 0 0 4.726-4.727q.001-.61-.156-1.187l-9.547-36.461c-1.265-7.074-7.437-12.45-14.875-12.45H34.105V5.044A4.73 4.73 0 0 0 29.38.316M9.53 23.004a9.45 9.45 0 0 0-9.453 9.453c0 5.219 4.23 9.453 9.453 9.453 5.219 0 9.453-4.234 9.453-9.453 0-5.223-4.234-9.453-9.453-9.453m0 0"/></g><g clip-path="url(#b)"><path fill="#012430" d="M29.316.316a4.73 4.73 0 0 0-4.726 4.727v24.895l-9.305 36.261.02.008c-.11.398-.168.813-.168 1.223a4.73 4.73 0 0 0 4.726 4.726A4.72 4.72 0 0 0 24.5 68.29l5.762-22.598h13.234L36.16 77.297h.008A4.728 4.728 0 0 0 40.66 83.5a4.72 4.72 0 0 0 4.645-3.898l7.289-31.403 8.043 31.692h.011a4.73 4.73 0 0 0 4.586 3.609 4.728 4.728 0 0 0 4.575-5.914l-9.551-36.461c-1.262-7.074-7.438-12.45-14.871-12.45H34.043V5.044A4.733 4.733 0 0 0 29.316.316M9.465 23.004a9.45 9.45 0 0 0-9.453 9.453c0 5.219 4.23 9.453 9.453 9.453s9.453-4.234 9.453-9.453a9.45 9.45 0 0 0-9.453-9.453m0 0"/></g></svg>
